X: 6
U:~=!turn!
U:k=!crescendo(!
U:m=!crescendo)!
U:n=!diminuendo(!
U:p=!diminuendo)!
M:C
L:1/8
K:D
"Very Slow."(A,<D) D>E ~D>EDA, | (B,E) TE>F {/F}TG>FED | "_express."!p!(FA)T[EA]>B T[Fd]>e {de}f>e | {/e}d>B (3(A/B/d/).F TE>FED ::
(A<d)Td>e {/c}d>edA | k(B>e) Te>mf {ef}ng>fepd | {/d}!p!f>edB (A<g) HTf>e | {/e}d>B (3(A/B/d/).F TE>FE!fine!HD ::
(A,/B,/D/E/ D/A,/D/E/ F/G/E/F/) (D/E/).D/.A,/ | (B,/D/E/F/ E/)(B,/E/F/) (A/F/)(d/F/) TE>D | (D/E/F/G/) A>B (A/D/)F/A/ [Fd]>e | (f/d/)(e/B/) (d/A/)(B/F/) (E/F/G/).F/ ED ::


